svgs/duotone/bridge-lock.svg

<svg xmlns="http://www.w3.org/2000/svg" viewBox="0 0 640 512"><!--! Font Awesome Pro 6.6.0 by @fontawesome - https://fontawesome.com License - https://fontawesome.com/license (Commercial License) Copyright 2024 Fonticons, Inc. --><defs><style>.fa-secondary{opacity:.4}</style></defs><path class="fa-secondary" d="M32 64c0 17.7 14.3 32 32 32l40 0 0 64-72 0 0 128c53 0 96 43 96 96l0 64c0 17.7 14.3 32 32 32l32 0c17.7 0 32-14.3 32-32l0-64c0-53 43-96 96-96c28.8 0 54.6 12.7 72.2 32.7c5.6-10 13.9-18.4 23.8-24.1l0-24.6c0-61.9 50.1-112 112-112l8 0 0-64 40 0c17.7 0 32-14.3 32-32s-14.3-32-32-32L64 32C46.3 32 32 46.3 32 64zM152 96l80 0 0 64-80 0 0-64zm128 0l80 0 0 64-80 0 0-64zm128 0l80 0 0 64-80 0 0-64z"/><path class="fa-primary" d="M496 272l0 48 64 0 0-48c0-17.7-14.3-32-32-32s-32 14.3-32 32zm-48 48l0-48c0-44.2 35.8-80 80-80s80 35.8 80 80l0 48c17.7 0 32 14.3 32 32l0 128c0 17.7-14.3 32-32 32l-160 0c-17.7 0-32-14.3-32-32l0-128c0-17.7 14.3-32 32-32z"/></svg>

<svg xmlns="http://www.w3.org/2000/svg" viewBox="0 0 640 512"><!--! Font Awesome Pro 6.4.0 by @fontawesome - https://fontawesome.com License - https://fontawesome.com/license (Commercial License) Copyright 2023 Fonticons, Inc. --><defs><style>.fa-secondary{opacity:.4}</style></defs><path class="fa-primary" d="M496 272v48h64V272c0-17.7-14.3-32-32-32s-32 14.3-32 32zm-48 48V272c0-44.2 35.8-80 80-80s80 35.8 80 80v48c17.7 0 32 14.3 32 32V480c0 17.7-14.3 32-32 32H448c-17.7 0-32-14.3-32-32V352c0-17.7 14.3-32 32-32z"/><path class="fa-secondary" d="M64 32C46.3 32 32 46.3 32 64s14.3 32 32 32h40v64H32V288c53 0 96 43 96 96v64c0 17.7 14.3 32 32 32h32c17.7 0 32-14.3 32-32V384c0-53 43-96 96-96c28.8 0 54.6 12.7 72.2 32.7c5.6-10 13.9-18.4 23.8-24.1V272c0-61.9 50.1-112 112-112h8V96h40c17.7 0 32-14.3 32-32s-14.3-32-32-32H64zM488 96v64H408V96h80zM360 96v64H280V96h80zM232 96v64H152V96h80z"/></svg>
